!!!OTL: INS BAYRISCH GEGANGE
!!!ARE: Europa, Mitteleuropa, Deutschland, Hessen, Lahnkreis; Dillkreis
!!!SCT: E1041A
!!!YEM: Copyright 1995, estate of Helmut Schaffrath.
**kern
*ICvox
*Ivox
*M3/4
*k[b-]
*F:
{4a
=1
4.cc
8b-
4a
=2
4.g
8a}
{8b-
8dd
=3
4.dd
8cc
4b-
=4
2a}
{8cc
8cc
=5
4cc
4a
4ff
=6
4.ff
8ee}
{4dd
=7
4cc
4b-
4cc
=8
2a}
{4a
=9
4g
4.g
8f
=10
8e
8g
4cc}
{8ee
8ee
=11
4.gg
8ff
8ee
8bn
=12
2cc}
{8cc
8cc
=13
4dd
4cc
4b-
=14
8a
8cc
4ff}
{8cc
8ff
=15
4.ee
8dd
8cc
8b-
=16
2a}
{8cc
8cc
=17
4dd
4cc
4b-
=18
8a
8cc
4ff}
{8cc
8ff
=19
4.ee
8dd
8cc
8b-
=20
2a}
==
!!!AGN: Tanz - Lied
!!!ONB: ESAC (Essen Associative Code) Database: ERK3
!!!AMT: simple triple
!!!AIN: vox
!!!EED: Helmut Schaffrath
!!!EEV: 1.0
*-
